Obsidian-SemiLight/actions/22s/document-new-from-template.svg

<svg viewBox="0 0 22 22" xmlns="http://www.w3.org/2000/svg"><path d="m4 3v16h1 8v-1h-8v-14h8v3 1h4v5h1v-4.59375-1.40625-.0078125l-3.992188-3.9921875-.007812.0097656v-.0097656h-1-8zm12 10-.574219 1.613281-1.546875-.734375.734375 1.546875-1.613281.574219 1.613281.574219-.734375 1.546875 1.546875-.734375.574219 1.613281.574219-1.613281 1.546875.734375-.734375-1.546875 1.613281-.574219-1.613281-.574219.734375-1.546875-1.546875.734375z" fill="#4d4d4d"/></svg>

<svg xmlns="http://www.w3.org/2000/svg" viewBox="0 0 22 22">
  <defs id="defs3051">
    <style type="text/css" id="current-color-scheme">
      .ColorScheme-Text {
        color:#4d4d4d;
      }
      </style>
  </defs>
 <path 
    style="fill:currentColor;fill-opacity:1;stroke:none" 
	d="M 4 3 L 4 19 L 5 19 L 13 19 L 13 18 L 5 18 L 5 4 L 13 4 L 13 7 L 13 8 L 17 8 L 17 13 L 18 13 L 18 8.40625 L 18 7 L 18 6.9921875 L 14.007812 3 L 14 3.0097656 L 14 3 L 13 3 L 5 3 L 4 3 z M 16 13 L 15.425781 14.613281 L 13.878906 13.878906 L 14.613281 15.425781 L 13 16 L 14.613281 16.574219 L 13.878906 18.121094 L 15.425781 17.386719 L 16 19 L 16.574219 17.386719 L 18.121094 18.121094 L 17.386719 16.574219 L 19 16 L 17.386719 15.425781 L 18.121094 13.878906 L 16.574219 14.613281 L 16 13 z "
    class="ColorScheme-Text"
    />
</svg>
